/* XPM */
static char *collectible_xpm[] = {
"64 64 4 1",
"  c None",
". c #1A1A2E",
"+ c #FFD700",
"@ c #FFA500",
"................................................................",
"................................................................",
"................................................................",
"................................................................",
"............................++++++++............................",
"........................++++++++++++............................",
"......................++++++++++++++++..........................",
".....................++++++++++++++++++.........................",
"....................++++++++++++++++++++........................",
"...................++++++++++++++++++++++.......................",
"..................++++++++++++++++++++++++......................",
".................++++++++++++++++++++++++++.....................",
"...............++++++++++++++++++++++++++++.....................",
"...............++++++++++++++++++++++++++++.....................",
"..............++++++++++++++++++++++++++++++....................",
".............++++++++++++++++++++++++++++++++...................",
"............++++++++++++++++++++++++++++++++++..................",
"...........++++++++++++++++++++++++++++++++++++.................",
"..........++++++++++++++++++++++++++++++++++++++................",
".........++++++++++++++++++++++++++++++++++++++++...............",
"........++++++++++++++++++++++++++++++++++++++++++..............",
".......++++++++++++++++++++++++++++++++++++++++++++.............",
"......++++++++++++++++++++++++++++++++++++++++++++++............",
".....++++++++++++++++++++++++++++++++++++++++++++++++...........",
"....++++++++++++++++++++++++++++++++++++++++++++++++++..........",
"...++++++++++++++++++++++++++++++++++++++++++++++++++++.........",
"..++++++++++++++++++++++++++++++++++++++++++++++++++++++........",
".++++++++++++++++++++++++++++++++++++++++++++++++++++++++.......",
".++++++++++++++++++++++++++++++++++++++++++++++++++++++++.......",
".++++++++++++++++++++++++++++++++++++++++++++++++++++++++.......",
".++++++++++++++++++++++++++++++++++++++++++++++++++++++++.......",
".++++++++++++++++++++++++++++++++++++++++++++++++++++++++.......",
".++++++++++++++++++++++++++++++++++++++++++++++++++++++++.......",
".++++++++++++++++++++++++++++++++++++++++++++++++++++++++.......",
".++++++++++++++++++++++++++++++++++++++++++++++++++++++++.......",
".++++++++++++++++++++++++++++++++++++++++++++++++++++++++.......",
"................................................................",
"................................................................",
"................................................................",
"................................................................",
"................................................................",
"................................................................",
"................................................................",
"................................................................",
"................................................................",
"................................................................",
"................................................................",
"................................................................",
"................................................................",
"................................................................",
"................................................................",
"................................................................",
"................................................................",
"................................................................",
"................................................................",
"................................................................",
"................................................................",
"................................................................",
"................................................................",
"................................................................",
"................................................................",
"................................................................",
"................................................................",
"................................................................",
"}; }
