/* XPM */
static char *exit_closed_xpm[] = {
"64 64 4 1",
"  c None",
". c #1A1A2E",
"+ c #FF0000",
"@ c #CC0000",
"................................................................",
"................................................................",
"................................................................",
"................................................................",
"................................................................",
"................................................................",
"................................................................",
"................................................................",
"................................................................",
"................................................................",
"................................................................",
"................................................................",
"................................................................",
"................................................................",
"................................................................",
"....................++++++++++++++++++++++++....................",
"...................++++++++++++++++++++++++++...................",
"..................++++++++++++++++++++++++++++..................",
".................++++++++++++++++++++++++++++++.................",
"................++++++++++++++++++++++++++++++++................",
"...............++++++++++++++++++++++++++++++++++...............",
"...............++++++++++++++++++++++++++++++++++...............",
"..............++++++++++++++++++++++++++++++++++++..............",
".............++++++++++++++++++++++++++++++++++++++.............",
"............++++++++++++++++++++++++++++++++++++++++............",
"...........++++++++++++++++++++++++++++++++++++++++++...........",
"...........++++++++++++++++++++++++++++++++++++++++++...........",
"..........++++++++++++++++++++++++++++++++++++++++++++..........",
".........++++++++++++++++++++++++++++++++++++++++++++++.........",
"........++++++++++++++++++++++++++++++++++++++++++++++++........",
".......++++++++++++++++++++++++++++++++++++++++++++++++++.......",
"......++++++++++++++++++++++++++++++++++++++++++++++++++++......",
".....++++++++++++++++++++++++++++++++++++++++++++++++++++++.....",
"....++++++++++++++++++++++++++++++++++++++++++++++++++++++++....",
"...++++++++++++++++++++++++++++++++++++++++++++++++++++++++++...",
"..++++++++++++++++++++++++++++++++++++++++++++++++++++++++++++..",
".++++++++++++++++++++++++++++++++++++++++++++++++++++++++++++++.",
".++++++++++++++++++++++++++++++++++++++++++++++++++++++++++++++.",
".++++++++++++++++++++++++++++++++++++++++++++++++++++++++++++++.",
".++++++++++++++++++++++++++++++++++++++++++++++++++++++++++++++.",
".++++++++++++++++++++++++++++++++++++++++++++++++++++++++++++++.",
".++++++++++++++++++++++++++++++++++++++++++++++++++++++++++++++.",
".++++++++++++++++++++++++++++++++++++++++++++++++++++++++++++++.",
".++++++++++++++++++++++++++++++++++++++++++++++++++++++++++++++.",
".++++++++++++++++++++++++++++++++++++++++++++++++++++++++++++++.",
"................................................................",
"................................................................",
"................................................................",
"................................................................",
"................................................................",
"................................................................",
"................................................................",
"................................................................",
"................................................................",
"................................................................",
"................................................................",
"................................................................",
"................................................................",
"................................................................",
"................................................................",
"................................................................",
"................................................................",
"................................................................",
"................................................................",
"}; }
