/* XPM */
static char *exit_open_xpm[] = {
"64 64 4 1",
"  c None",
". c #1A1A2E",
"+ c #00FF00",
"@ c #00CC00",
"................................................................",
"................................................................",
"................................................................",
"................................................................",
"................................................................",
"................................................................",
"................................................................",
"................................................................",
"................................................................",
"................................................................",
"................................................................",
"................................................................",
"................................................................",
"................................................................",
"................................................................",
"....................++++++++++++++++++++++++....................",
"...................++++++++++++++++++++++++++...................",
"..................++++++++++++++++++++++++++++..................",
".................++++++++++++++++++++++++++++++.................",
"................++++++++++++++++++++++++++++++++................",
"...............++++++++++++++++++++++++++++++++++...............",
"...............++++++++++++++++++++++++++++++++++...............",
"..............++++++++++++++++++++++++++++++++++++..............",
".............++++++++++++++++++++++++++++++++++++++.............",
"............++++++++++++++++++++++++++++++++++++++++............",
"...........++++++++++++++++++++++++++++++++++++++++++...........",
"...........++++++++++++++++++++++++++++++++++++++++++...........",
"..........++++++++++++++++++++++++++++++++++++++++++++..........",
".........++++++++++++++++++++++++++++++++++++++++++++++.........",
"........++++++++++++++++++++++++++++++++++++++++++++++++........",
".......++++++++++++++++++++++++++++++++++++++++++++++++++.......",
"......++++++++++++++++++++++++++++++++++++++++++++++++++++......",
".....++++++++++++++++++++++++++++++++++++++++++++++++++++++.....",
"....++++++++++++++++++++++++++++++++++++++++++++++++++++++++....",
"...++++++++++++++++++++++++++++++++++++++++++++++++++++++++++...",
"..++++++++++++++++++++++++++++++++++++++++++++++++++++++++++++..",
".++++++++++++++++++++++++++++++++++++++++++++++++++++++++++++++.",
".++++++++++++++++++++++++++++++++++++++++++++++++++++++++++++++.",
".++++++++++++++++++++++++++++++++++++++++++++++++++++++++++++++.",
".++++++++++++++++++++++++++++++++++++++++++++++++++++++++++++++.",
".++++++++++++++++++++++++++++++++++++++++++++++++++++++++++++++.",
".++++++++++++++++++++++++++++++++++++++++++++++++++++++++++++++.",
".++++++++++++++++++++++++++++++++++++++++++++++++++++++++++++++.",
".++++++++++++++++++++++++++++++++++++++++++++++++++++++++++++++.",
".++++++++++++++++++++++++++++++++++++++++++++++++++++++++++++++.",
"................................................................",
"................................................................",
"................................................................",
"................................................................",
"................................................................",
"................................................................",
"................................................................",
"................................................................",
"................................................................",
"................................................................",
"................................................................",
"................................................................",
"................................................................",
"................................................................",
"................................................................",
"................................................................",
"................................................................",
"................................................................",
"................................................................",
"}; }
