/* XPM */
static char *player_right_xpm[] = {
"64 64 5 1",
"  c None",
". c #1A1A2E",
"+ c #FFD700",
"@ c #FF6B6B",
"# c #4ECDC4",
"................................................................",
"................................................................",
"................................................................",
"................................................................",
"................................................................",
"................................................................",
"................................................................",
"................................................................",
"................................................................",
"................................................................",
"................................................................",
"................................................................",
"................................................................",
"................................................................",
"................................................................",
"................................................................",
"................................................................",
"................................................................",
"................................................................",
"................................................................",
"................................................................",
"................................................................",
"................................................................",
"................................................................",
"................................................................",
"................................................................",
"................................................................",
"................................................................",
"................................................................",
"................................................................",
"................................................................",
"................................................................",
"................................................................",
"................................................................",
"++++++++++++++++++++++++++++....................................",
"++++++++++++++++++++++++++++....................................",
"++++++++++++++++++++++++++++....................................",
"++++++++++++++++++++++++++++....................................",
"++++++++++++++++++++++++++++....................................",
"++++++++++++++++++++++++++++....................................",
"++++++++++++++++++++++++++++....................................",
"++++++++++++++++++++++++++++....................................",
"++++++++++++++++++++++++++++....................................",
"++++++++++++++++++++++++++++....................................",
"++++++++++++++++++++++++++++....................................",
"++++++++++++++++++++++++++++....................................",
"++++++++++++++++++++++++++++....................................",
"++++++++++++++++++++++++++++....................................",
"++++++++++++++++++++++++++++....................................",
"++++++++++++++++++++++++++++....................................",
"++++++++++++++++++++++++++++....................................",
"++++++++++++++++++++++++++++....................................",
"++++++++++++++++++++++++++++....................................",
"++++++++++++++++++++++++++++....................................",
"++++++++++++++++++++++++++++....................................",
"++++++++++++++++++++++++++++....................................",
"++++++++++++++++++++++++++++....................................",
"++++++++++++++++++++++++++++....................................",
"++++++++++++++++++++++++++++....................................",
"++++++++++++++++++++++++++++....................................",
"++++++++++++++++++++++++++++....................................",
"++++++++++++++++++++++++++++....................................",
"++++++++++++++++++++++++++++....................................",
"++++++++++++++++++++++++++++....................................",
"}; }
