/* XPM */
static char *wall_xpm[] = {
"64 64 4 1",
"  c #2C2C2C",
". c #3A3A3A",
"X c #4A4A4A",
"o c #1A1A1A",
"XXXXXXXXXXXXXXXXXXXXXXXXXXXXXXXXXXXXXXXXXXXXXXXXXXXXXXXXXXXXXXXX",
"X..............................................................X",
"X..............................................................X",
"X..............................................................X",
"X..............................................................X",
"X..............................................................X",
"X..............................................................X",
"X..............................................................X",
"X..............................................................X",
"X..............................................................X",
"X..............................................................X",
"X..............................................................X",
"X..............................................................X",
"X..............................................................X",
"X..............................................................X",
"X..............................................................X",
"X..............................................................X",
"X..............................................................X",
"X..............................................................X",
"X..............................................................X",
"X..............................................................X",
"X..............................................................X",
"X..............................................................X",
"X..............................................................X",
"X..............................................................X",
"X..............................................................X",
"X..............................................................X",
"X..............................................................X",
"X..............................................................X",
"X..............................................................X",
"X..............................................................X",
"X..............................................................X",
"X..............................................................X",
"X..............................................................X",
"X..............................................................X",
"X..............................................................X",
"X..............................................................X",
"X..............................................................X",
"X..............................................................X",
"X..............................................................X",
"X..............................................................X",
"X..............................................................X",
"X..............................................................X",
"X..............................................................X",
"X..............................................................X",
"X..............................................................X",
"X..............................................................X",
"X..............................................................X",
"X..............................................................X",
"X..............................................................X",
"X..............................................................X",
"X..............................................................X",
"X..............................................................X",
"X..............................................................X",
"X..............................................................X",
"X..............................................................X",
"X..............................................................X",
"X..............................................................X",
"X..............................................................X",
"X..............................................................X",
"X..............................................................X",
"X..............................................................X",
"X..............................................................X",
"XXXXXXXXXXXXXXXXXXXXXXXXXXXXXXXXXXXXXXXXXXXXXXXXXXXXXXXXXXXXXXXX",
"}; }
